X:18
T:Quadrill La Ete. Le4.018, A
B:L.Leadley MS#4 c1850
Z:Village Music Project, 2016 Steve Mansfield
M:2/4
L:1/8
Q:2/4=60
N:Transcribed as in Mss; transcriber suggests barlines
N: are all half a bar out of place
K:G
dg | fd ee | d2 ce | Bd Ac | BG dg |
fd ee | d2 c/d/e/c/ | Bd cA | G2 :|
|: Be | d/c/B/A/ e/f/g/a/ | fd bb/g/ | aa/f/ gg/e/ | B2 bb |
g2 aa | f2 a/g/f/g/ | eg fd | e2!D.C.! :|

